X:1
T:Title
%%score { ( 1 3 ) | ( 2 4 ) }
L:1/8
M:4/4
K:Bb
V:1 bass nm="Grand Piano"
V:3 bass 
V:2 bass 
V:4 bass 
V:1
 z4 z[Q:1/4=100] [F,DF][F,B,D][F,CE] | [B,DF]2 [A,EF]2 [B,F][K:bass][F,B,D][B,CE][K:treble][B,DF] | %2
 [B,EG]2 [=B,FG]2 [EG][EG][E^F][EG] | A2 A2 B2 c2 | F6[K:bass] z2 | %5
 [B,DF]2 [A,EF]2 [B,F][K:bass][F,B,D][B,CE][K:treble][B,DF] | %6
[M:9/8] [B,EG]2 [=B,FG]- [B,FG] [=Ec]2- [Ec][EB][EB] |[M:4/4] [EA] [Ge]3 [Fd]2 [Ec]2 | %8
[M:3/4] B2- [EB-]2 [DB]2 |[M:1/4] AB |[M:4/4] c2 F2 z2 A,2 | [Fd]2 [DB]2 z2 B,2 | [EG]4 z4 | %13
 [^Fd]4 z [Fd][F_d][F=d] | e2 d2 =BG_AG | [=Ed]2 [Ec]2 B2 G2 | F d3 [=Ed]2 [_Ec]2 | %17
[M:15/16] B->B-[EB]- [EB]3 D3/2 |] %18
V:2
 z4 z B,,B,,B,, | B,,2 C,2 D,B,,B,,B,, | E,2 D,2 [C,C][C,C][C,C][C,C] | %3
 [F,CE]2 [F,CE]2 [F,G,E]2 [F,A,E]2 | B,,2 C,2 B,,B,,B,,B,, | B,,2 C,2 D,B,,B,,B,, | %6
[M:9/8] E,2 D,- D, [C,C]2- [C,C][C,C][C,C] |[M:4/4] [F,C] [F,A,]3 [F,B,]2 [F,A,]2 | %8
[M:3/4] z2 G,2 F,2 |[M:1/4] CD |[M:4/4] [F,A,E]2 [F,A,E]2 E2- [F,E]2 | %11
 [B,,B,]2 [B,,B,]2 [B,,B,]2 B,,2 | E,E,E,E, E,2 [E,G,]2 | [D,A,]4 z [D,A,][D,A,][D,A,] | %14
 [G,=B,F]2 [G,B,F]2 [G,DF][G,B,F][G,B,F][G,B,F] | [C,B,]2 [C,B,]2 [=E,B,_D]2 [E,B,D]2 | %16
 [F,B,D] [F,B,F]3 [C,G,]2 [F,A,]2 |[M:15/16] z3/2 z/ G,- G,3 F,3/2 |] %18
V:3
 x8 | x5[K:bass] x2[K:treble] x | x8 | x8 | [B,D]2[K:bass] [A,E]2 [B,D][F,DF][F,B,D][E,CE] | %5
 x5[K:bass] x2[K:treble] x |[M:9/8] x9 |[M:4/4] x8 |[M:3/4] [B,D]2 z2 z2 |[M:1/4] x2 | %10
[M:4/4] z4 F4 | z4 [DB]4 | B,B,B,[B,FA] [B,GB]2 [Gc]2 | x8 | x8 | x8 | x8 | %17
[M:15/16] .[B,D]3 z3/2 z3 |] %18
V:4
 x8 | x8 | x8 | x8 | x8 | x8 |[M:9/8] x9 |[M:4/4] x8 |[M:3/4] B,,6 |[M:1/4] x2 | %10
[M:4/4] z4 [F,A,]2 z2 | x8 | x8 | x8 | x8 | x8 | x8 |[M:15/16] B,,3/2-B,,3/2- B,,3 z3/2 |] %18

